X: 36030
T: Scapa Flow
R: reel
M: 4/4
K: Dmajor
A|:D3EF2A2|G2B2A2g2|fedc BAGF|E2A2C2A,2|
D3EF2A2|G2B2A2g2|fedc Bcde|1 f2d2d2A2:|2 f2d2d2ag||
f2d2a2d2|b2d2a2d2|c2BAe2A2|g2e2c2A2|
d3ef2d2|a2d2f2d2|efga gfeg|f2d2d2A2|
d3ef2d2|a2d2f2d2|c2BAe2A2|g2e2c2A2|
D3EF2A2|G2B2A2g2|fedc Bcde|f2d2d2||

